X: 1076
T: Hiçbir Şeyde Gözüm Yok
C: Fethi Karamahmutoğlu
O: Turkey
F: http://compmusic.upf.edu/node/140
N: hicaz--sarki--duyek--hicbir_seyde--fethi_karamahmutoglu
N: makam= hicaz
N: form= sarki
N: usul= duyek = 8/4
M: 8/4
L: 1/16
K: C _7/8B ^f ^c 
Q: 1/4=162
%%MIDI tuningsystem comma53
A2 =f4 f2 f2 g2 f2 e2  | z2 e4 e2 e2 =f2 e2 d2  | \
w:  ARANAĞME  |   | 
z2 d4 d2 d2 e2 d2 c2  | 
w:   | 
c2 d2 B2 A2 d4 c4  | z2 d4 d2 d2 e2 d2 c2  | \
w:   |   | 
z2 c4 c2 c2 d2 c2 B2  | z2 B4 B2 B2 c2 B2 A2  | 
w:   |   | 
A2 B2 G2 F2 B4 A4  | A2 =f4 f2 f2 g2 f2 e2  | \
w:   |  ARANAĞME  | 
z2 e4 e2 e2 =f2 e2 d2  | z2 d4 d2 d2 e2 d2 c2  | 
w:   |   | 
c2 d2 B2 A2 d4 c4  | z2 d4 d2 d2 e2 d2 c2  | \
w:   |   | 
z2 c4 c2 c2 d2 c2 B2  | z2 B4 B2 B2 c2 B2 A2  | 
w:   |   | 
A2 B2 G2 F2 B4 A4  | e4 =f4 e4 d2 c2  | \
w:   |  Hiç bir  şey de  gö  | 
e3d d4 z2 d2 e2 f2  | g2 g4 g2 g2 f2 f2 e2  | 
w:  züm  *  yok   SAZ  |  *  Sen  ya nım *  da   | 
d2 e4 f2 g2 gf g4  | z2 a4 b2 a4 g4  | \
w:  *  ol  ye ter    |  Kap ka ran lık   | 
=f2 e2 f4 e2 g2 f4  | e4 =f4 e2 d6  | 
w:  o da ma  SAZ  |  Meh tap  gi bi   | 
z2 e3d c2 d8  | z2 a2 g2 =f2 e2 d2 c2 B2  | \
w:  dol  *  ye ter    |  SAZ  | 
A2 A4 A2 B2 G2 A4  | e4 =f4 e4 d2 c2  | 
w:   |  Hiç bir  şey de  gö  | 
e3d d4 z2 d2 e2 f2  | g2 g4 g2 g2 f2 f2 e2  | \
w:  züm  *  yok   SAZ  |  *  Sen  ya nım *  da   | 
d2 e4 f2 g2 gf g4  | 
w:  *  ol  ye ter    | 
z2 a4 b2 a4 g4  | =f2 e2 f4 e2 g2 f4  | \
w:  Kap ka ran lık   |  o da ma  SAZ  | 
e4 =f4 e2 d6  | z2 e3d c2 d8  | z2 G2 A2 B2 c2 d2 e2 c2  | 
w:  Meh tap  gi bi   |  dol  *  ye ter    |  SAZ  | 
d2 d4 d2 e4 =f4  | =f4 f4 f2 f2 f2 e2  | \
w:   |  Yağ mur  vu rur  | 
e3d c2 d2 e8  | =f2 f4 e2 e3d d2 e2  | 
w:  ken  *  *  ca ma    |  Da lar *  ken  *  ge  | 
d3c c2 d2 c8  | z2 d4 =f2 e2 d2 c2 B2  | \
w:  ce  *  *  ga ma    |  Öz le yen  *  kol  | 
d3c cB BA B8  | B2 A4 G2 c2 B4 c2  | 
w:  *  *  la *  rı *  ma    |  U sul ca  so kul  ye  | 
A2 A6 e4 =f4  | =f4 f4 f2 f2 f2 e2  | \
w:  ter   SAZ  |  Yağ mur  vu rur  | 
e3d c2 d2 e8  | =f2 f4 e2 e3d d2 e2  | 
w:  ken  *  *  ca ma    |  Da lar *  ken  *  ge  | 
d3c c2 d2 c8  | z2 d4 =f2 e2 d2 c2 B2  | \
w:  ce  *  *  ga ma    |  Öz le yen  *  kol  | 
d3c cB BA B8  | B2 A4 G2 c2 B4 c2  | 
w:  *  *  la *  rı *  ma    |  U sul ca  so kul  ye  | 
A2 A4 A2 G4 A4  | A2 =f4 f2 f2 g2 f2 e2  | \
w:  ter   SAZ  |  SAZ  | 
z2 e4 e2 e2 =f2 e2 d2  | z2 d4 d2 d2 e2 d2 c2  | 
w:   |   | 
c2 d2 B2 A2 d4 c4  | z2 d4 d2 d2 e2 d2 c2  | \
w:   |   | 
z2 c4 c2 c2 d2 c2 B2  | z2 B4 B2 B2 c2 B2 A2  | 
w:   |   | 
z2 A2 B2 c2 d2 e2 ^1/4f2 ^g2  | a2 a4 a2 a8  | \
w:   |  *  Sız la yan   | 
a3^g ^1/4f2 g2 a8  | z2 ^g2 a2 =b2 g4 ^1/4f2 fe  | 
w:  her  *  ye ri min    |  Şu  çi le li  se ri min    | 
e2 e6 f4 g4  | z2 g6 g2 f2 f2 e2  | z2 a4 a2 g2 =f2 e2 d2  | \
w:  SAZ  |  Sa hip *  siz   |  dert le ri min    | 
z2 e4 f2 g2 g2 =f2 e2  | 
w:  Ça re si ni   | 
d2 e3d c2 d8  | z2 A2 B2 c2 d2 e2 =f2 ^g2  | \
w:  *  bul  *  ye ter    |  SAZ  | 
a2 a4 a2 =f4 a4  | a2 a4 a2 a8  | 
w:   |  *  Sız la yan   | 
a3^g ^1/4f2 g2 a8  | z2 ^g2 a2 =b2 g4 ^1/4f2 fe  | \
w:  her  *  ye ri min    |  Şu  çi le li  se ri min    | 
e2 e6 f4 g4  | z2 g6 g2 f2 f2 e2  | 
w:  SAZ  |  Sa hip *  siz   | 
z2 a4 a2 g2 =f2 e2 d2  | z2 e4 f2 g2 g2 =f2 e2  | \
w:  dert le ri min    |  Ça re si ni   | 
d2 e3d c2 d8  | z2 G2 A2 B2 c2 d2 e2 c2  | 
w:  *  bul  *  ye ter    |  SAZ  | 
d2 d4 d2 e4 =f4  | =f4 f4 f2 f2 f2 e2  | \
w:   |  Yağ mur  vu rur  | 
e3d c2 d2 e8  | =f2 f4 e2 e3d d2 e2  | 
w:  ken  *  *  ca ma    |  Da lar *  ken  *  ge  | 
d3c c2 d2 c8  | z2 d4 =f2 e2 d2 c2 B2  | \
w:  ce  *  *  ga ma    |  Öz le yen  *  kol  | 
d3c cB BA B8  | B2 A4 G2 c2 B4 c2  | 
w:  *  *  la *  rı *  ma    |  U sul ca  so kul  ye  | 
A2 A6 e4 =f4  | =f4 f4 f2 f2 f2 e2  | \
w:  ter   SAZ  |  Yağ mur  vu rur  | 
e3d c2 d2 e8  | =f2 f4 e2 e3d d2 e2  | 
w:  ken  *  *  ca ma    |  Da lar *  ken  *  ge  | 
d3c c2 d2 c8  | z2 d4 =f2 e2 d2 c2 B2  | \
w:  ce  *  *  ga ma    |  Öz le yen  *  kol  | 
d3c cB BA B8  | B2 A4 G2 c2 B4 c2  | 
w:  *  *  la *  rı *  ma    |  U sul ca  so kul  ye  | 
A2 A4 A2 G4 A4  | |


